X: 3
T: The Whistling Postman
R: reel
M: 4/4
L: 1/8
K: Dmaj
fd ~d2 e2fe|dBAF EGFE|DE F/E/D AGFA|defd ~g4|~f3de2 fe|dBAF EGFE|DE F/E/D FAdf|1 edBc d2 ag:|2 edBc d3e||fd~d2 B/c/d fa|bfaf gfef|dfaf g2 fg|afdf ~e4|fd~d2 B/c/d fa|bfaf gfef|dBAF ABdf|edBc d3e|fd~d2 B/c/d fa|bfaf gfef|dfaf g2 fg|afdf ~e4|~a3b afdf|g2fg edBc|dBAF ABdf|edBc d2ag||


Tune 586	Setting 13582

